svgs/puzzles.svg

<svg xmlns="http://www.w3.org/2000/svg" viewBox="0 0 192 192"><path d="M24.868 16.5h142.264a8.375 8.375 0 0 1 7.247 4.184 8.375 8.375 0 0 1 1.121 4.184v142.264a8.375 8.375 0 0 1-4.184 7.247 8.375 8.375 0 0 1-4.184 1.121H24.868a8.375 8.375 0 0 1-7.247-4.184 8.375 8.375 0 0 1-1.121-4.184V24.868a8.371 8.371 0 0 1 8.368-8.368" fill="none" stroke="#000" stroke-width="12" stroke-linecap="round" stroke-linejoin="round"/><path d="M130.227 34.074h25.482v25.482h-25.482ZM83.28 83.238h25.482v25.482H83.28Zm46.947 50.085h25.482v25.482h-25.482Zm0-86.487H49.011m0 99.207V46.836m81.216 99.207H49.011M96 83.238V46.836m59.709 0H175.5m-32.511 71.884V73.28" fill="none" stroke="#000" stroke-width="12" stroke-linecap="round" stroke-linejoin="round"/></svg>

<svg
    xmlns="http://www.w3.org/2000/svg"
    viewBox="0 0 192 192"
    id="vector">
    <path
        id="path"
        d="M 24.868 16.5 L 167.132 16.5 C 168.6 16.5 170.044 16.887 171.316 17.621 C 172.588 18.356 173.644 19.412 174.379 20.684 C 175.113 21.956 175.5 23.4 175.5 24.868 L 175.5 167.132 C 175.5 168.6 175.113 170.044 174.379 171.316 C 173.644 172.588 172.588 173.644 171.316 174.379 C 170.044 175.113 168.6 175.5 167.132 175.5 L 24.868 175.5 C 23.4 175.5 21.956 175.113 20.684 174.379 C 19.412 173.644 18.356 172.588 17.621 171.316 C 16.887 170.044 16.5 168.6 16.5 167.132 L 16.5 24.868 C 16.5 22.65 17.382 20.52 18.951 18.951 C 20.52 17.382 22.65 16.5 24.868 16.5"
        fill="none"
        stroke="#000000"
        stroke-width="12"
        stroke-linecap="round"
        stroke-linejoin="round"/>
    <path
        id="path_1"
        d="M 130.227 34.074 L 155.709 34.074 L 155.709 59.556 L 130.227 59.556 Z M 83.28 83.238 L 108.762 83.238 L 108.762 108.72 L 83.28 108.72 Z M 130.227 133.323 L 155.709 133.323 L 155.709 158.805 L 130.227 158.805 Z M 130.227 46.836 L 49.011 46.836 M 49.011 146.043 L 49.011 46.836 M 130.227 146.043 L 49.011 146.043 M 96 83.238 L 96 46.836 M 155.709 46.836 L 175.5 46.836 M 142.989 118.72 L 142.989 73.28"
        fill="none"
        stroke="#000000"
        stroke-width="12"
        stroke-linecap="round"
        stroke-linejoin="round"/>
</svg>
